icons/male_condom.svg

<svg width="48" height="48" viewBox="0 0 48 48" fill="none" xmlns="http://www.w3.org/2000/svg">
<path fill-rule="evenodd" clip-rule="evenodd" d="M31.2622 9.99025L31.9946 7.1404L27.886 6L7.09027 18.5174L5.99997 22.7872L8.73348 23.5508L8.00104 26.4007L10.7345 27.1643L10.0021 30.0141L12.7356 30.7778L12.0032 33.6276L14.7367 34.3912L14.0042 37.2411L16.7378 38.0047L16.0053 40.8546L20.1056 42L40.8929 29.4876L42 25.2078L39.2665 24.4442L39.9989 21.5943L37.2654 20.8307L37.9978 17.9808L35.2643 17.2172L35.9968 14.3673L33.2632 13.6037L33.9957 10.7539L31.2622 9.99025ZM31.5711 12.1531L28.8376 11.3895L29.5692 8.5428L28.1802 8.15727L8.82499 19.8076L8.42166 21.3871L11.1581 22.1516L10.4257 25.0014L13.1592 25.765L12.4267 28.6149L15.1602 29.3785L14.4278 32.2284L17.1613 32.992L16.4289 35.8419L19.1624 36.6055L18.4299 39.4553L19.8131 39.8417L39.1613 28.1955L39.5724 26.6062L36.8418 25.8434L37.5743 22.9935L34.8408 22.2299L35.5732 19.3801L32.8397 18.6165L33.5721 15.7666L30.8386 15.003L31.5711 12.1531Z" fill="black"/>
<path fill-rule="evenodd" clip-rule="evenodd" d="M24 30.9993C27.866 30.9993 31 27.8653 31 23.9993C31 20.1333 27.866 16.9993 24 16.9993C20.134 16.9993 17 20.1333 17 23.9993C17 27.8653 20.134 30.9993 24 30.9993ZM24 32.9993C28.9706 32.9993 33 28.9699 33 23.9993C33 19.0287 28.9706 14.9993 24 14.9993C19.0295 14.9993 15 19.0287 15 23.9993C15 28.9699 19.0295 32.9993 24 32.9993Z" fill="black"/>
<path fill-rule="evenodd" clip-rule="evenodd" d="M24 27.0003C25.6569 27.0003 27 25.6571 27 24.0003C27 22.3434 25.6569 21.0003 24 21.0003C22.3432 21.0003 21 22.3434 21 24.0003C21 25.6571 22.3432 27.0003 24 27.0003ZM24 29.0003C26.7615 29.0003 29 26.7617 29 24.0003C29 21.2388 26.7615 19.0003 24 19.0003C21.2386 19.0003 19 21.2388 19 24.0003C19 26.7617 21.2386 29.0003 24 29.0003Z" fill="black"/>
</svg>

<svg
  xmlns="http://www.w3.org/2000/svg"
  width="24"
  height="24"
  viewBox="0 0 24 24"
  fill="none"
  stroke="currentColor"
  stroke-width="2"
  stroke-linecap="round"
  stroke-linejoin="round"
>
  <path
    fill-rule="evenodd"
    d="m31.262 9.99.733-2.85L27.886 6 7.09 18.517 6 22.787l2.733.764-.732 2.85 2.734.763-.733 2.85 2.734.764-.733 2.85 2.734.763-.733 2.85 2.734.764-.733 2.85 4.1 1.145 20.788-12.512L42 25.208l-2.733-.764.732-2.85-2.734-.763.733-2.85-2.734-.764.733-2.85-2.734-.763.733-2.85zm.31 2.163-2.734-.764.731-2.846-1.389-.386-19.355 11.65-.403 1.58 2.736.765-.732 2.85 2.733.763-.732 2.85 2.733.764-.732 2.85 2.733.763-.732 2.85 2.733.764-.732 2.85 1.383.386 19.348-11.646.411-1.59-2.73-.763.732-2.85-2.733-.763.732-2.85-2.733-.764.732-2.85-2.733-.763z"
    clip-rule="evenodd"
  />
  <path
    fill-rule="evenodd"
    d="M24 31a7 7 0 1 0 0-14 7 7 0 0 0 0 14m0 2a9 9 0 1 0 0-18 9 9 0 0 0 0 18"
    clip-rule="evenodd"
  />
  <path
    fill-rule="evenodd"
    d="M24 27a3 3 0 1 0 0-6 3 3 0 0 0 0 6m0 2a5 5 0 1 0 0-10 5 5 0 0 0 0 10"
    clip-rule="evenodd"
  />
</svg>
